icons/message-3-line.svg

<svg xmlns="http://www.w3.org/2000/svg" width="24" height="24" fill="none"><g clip-path="url(#a)"><g><path fill="#121212" d="M2 8.99401C1.99947 8.20621 2.15435 7.42605 2.45577 6.69819C2.75718 5.97034 3.19921 5.30909 3.75655 4.75231C4.31388 4.19553 4.97558 3.75416 5.70373 3.45348C6.43189 3.15279 7.21221 2.99869 8 3.00001H16C19.313 3.00001 22 5.69501 22 8.99401V21H8C4.687 21 2 18.305 2 15.006V8.99401ZM20 19V8.99401C19.9974 7.93451 19.5749 6.91925 18.8251 6.17063C18.0754 5.42201 17.0595 5.00106 16 5.00001H8C7.47485 4.99869 6.9546 5.10106 6.4691 5.30123C5.98359 5.50141 5.54238 5.79546 5.17076 6.16652C4.79914 6.53758 4.50443 6.97835 4.30353 7.46356C4.10262 7.94876 3.99947 8.46886 4 8.99401V15.006C4.00265 16.0655 4.42511 17.0808 5.17486 17.8294C5.9246 18.578 6.9405 18.999 8 19H20ZM14 11H16V13H14V11ZM8 11H10V13H8V11Z"/></g></g><defs><clipPath id="a"><rect width="24" height="24" fill="white"/></clipPath></defs></svg>

<svg width="24" height="24" fill="none" xmlns="http://www.w3.org/2000/svg"><g clip-path="url(#a)"><path d="M2 8.994A5.99 5.99 0 0 1 8 3h8c3.313 0 6 2.695 6 5.994V21H8c-3.313 0-6-2.695-6-5.994V8.994ZM20 19V8.994A4.004 4.004 0 0 0 16 5H8a3.99 3.99 0 0 0-4 3.994v6.012A4.004 4.004 0 0 0 8 19h12Zm-6-8h2v2h-2v-2Zm-6 0h2v2H8v-2Z" /></g><defs><clipPath id="a"><path fill="#fff" d="M0 0h24v24H0z"/></clipPath></defs></svg>
